X: 13509
T: Flowers Of Edinburgh, The
R: reel
M: 4/4
K: Gmajor
|:GE|D2DE G2GA|BABd cBAG|FGFE DEFG|ABAF E2GE|
D2DE G2GA|BABd efge|dcBA GFGA|B2G2 G2:|
|:B/c/d|g2g2 gbag|f2f2 fagf|e2ef gfed|B2e2 e2ge|
dBGB d3B|cdef gage|dcBA GFGA|B2G2 G2:|

